X:1
T:Andover, 87.87.88.77
T:Andover, 87.87.88.77
T:Charles Beecher (1815-1900)
T:Public Domain Courtesy of the Cyber Hymnal™
C:Charles Beecher (1815-1900)
Z:Public Domain
Z:Courtesy of the Cyber Hymnal™
%%score 1 2 3
L:1/8
Q:1/4=100
M:4/4
K:C
V:1 treble 
V:2 treble 
V:3 bass 
V:1
 c2 | c3 c c2 c2 | c2 c2 c2 G2 | G2 G2 G2 G2 | G4 G2 G2 | c2 c2 c2 c2 | c2 c2 c2 c2 | c3 G G2 G2 | %8
 G4 G2 G2 | G3 G G2 G2 | c3 c c2 c2 | c2 c2 A2 A2 | G2 ^F2 G2 G2 | c3 c c2 c2 | c4 c2 c2 | %15
 c3 G G2 G2 | G4 G2 |] %17
V:2
 ([CE]>[DF]) | [EG]3 [EG] [EG]2 [Ac]2 | [GB]2 [FA]2 [EG]2 ([B,D][CE]) | [DF]2 [FA]2 [EG]2 [DF]2 | %4
 [DF]4 [CE]2 ([CE]>[DF]) | [EG]2 [Ge]2 [Fd]2 [Ec]2 | [GB]2 [FA]2 [FA]2 [FA]2 | %7
 [EG]3 [Ec] [Ge]2 [Fd]2 | [Fd]4 [Ec]2 ([DB][Ec]) | [Fd]3 [Fd] [Fd]2 [DB]2 | %10
 [Ec]3 [Fd] [Ge]2 ([Fd][Ge]) | [Af]2 [Ge]2 [Fd]2 [Ec]2 | [DB]2 [CA]2 [B,G]2 ([CE]>[DF]) | %13
 [EG]3 [EG] [EG]2 [Ec]2 | [GB]2 [FA]2 [FA]2 [FA]2 | [EG]3 [Ec] [Ge]2 [Fd]2 | [Fd]4 [Ec]2 |] %17
V:3
 C,2 | C,3 C, C,2 C,2 | C,2 C,2 C,2 G,2 | G,2 G,2 G,2 G,2 | C,4 C,2 C,2 | C,2 C,2 C,2 C,2 | %6
 F,2 F,2 F,2 F,2 | G,3 G, G,,2 G,,2 | C,4 C,2 G,2 | G,3 G, G,2 G,2 | C,3 C, C,2 C,2 | %11
 F,2 F,2 F,2 ^F,2 | G,2 D,2 G,,2 C,2 | C,3 C, C,2 C,2 | F,4 F,2 F,2 | G,3 G, G,,2 G,,2 | C,4 C,2 |] %17

